X: 18240
T: Humours Of Lisheen, The
R: jig
M: 6/8
K: Gmajor
d|:efg edB|c2A BGE|GFG BdB|BAG ABd|
e2g edB|cBA BGE|GFG BdB|1 AGF GBd:|2 AGF G2G||
GBd g2g|agf g2e|fed edB|cBA BGE|
GBd gfg|agf g2e|fed edB|1 cAF G2D:|2 cAF GBd||

